images_sukapura_svg/cmd/lc_styleupdatebyexample.svg

<svg viewBox="0 0 24 24" xmlns="http://www.w3.org/2000/svg" xmlns:xlink="http://www.w3.org/1999/xlink"><linearGradient id="a" gradientTransform="translate(27 -7)" gradientUnits="userSpaceOnUse" x1="14" x2="13.79661" y1="22" y2="2.135593"><stop offset="0" stop-color="#0040dd"/><stop offset="1" stop-color="#0a84ff"/></linearGradient><linearGradient id="b" gradientUnits="userSpaceOnUse" x1="22" x2="14" xlink:href="#a" y1="9" y2="-1"/><linearGradient id="c" gradientUnits="userSpaceOnUse" x1="12.582002" x2="19" xlink:href="#a" y1="5.361473" y2="12"/><filter id="d" color-interpolation-filters="sRGB" height="1.135959" width="1.153052" x="-.076526" y="-.067979"><feGaussianBlur stdDeviation=".44180839"/></filter><radialGradient id="e" cx="55.498295" cy="20.746534" gradientTransform="matrix(1 0 0 .72181261 0 7.10169)" gradientUnits="userSpaceOnUse" r="10.03901"><stop offset="0" stop-color="#ffc765"/><stop offset="1" stop-color="#ffa914"/></radialGradient><radialGradient id="f" cx="55.441967" cy="22.525862" gradientTransform="matrix(1.2258064 0 0 1.0478667 -12.519154 -1.07824)" gradientUnits="userSpaceOnUse" r="2.229184"><stop offset="0" stop-color="#ffe9c3"/><stop offset="1" stop-color="#ffe9c3" stop-opacity="0"/></radialGradient><path d="m7.8984375 2-5.8984375 16h1.6875c.1834758 0 .3391616-.05267.4667969-.158203.1356125-.10553.2275274-.227232.2753906-.365235l1.328125-3.835937h6.4843755l.472656 1.359375h1.960937l.16211-.162109-4.72461-12.837891zm1.1015625 2.09375c.071795.3003551.1467904.5800771.2265625.8398438.079772.2597666.1604623.4887687.2402344.6835937l2.2246091 6.4414065h-5.3828122l2.2246093-6.4296878c.0717949-.1948249.1467904-.421874.2265625-.6816406s.1604623-.5450428.2402344-.8535156z" fill="#69696e"/><g transform="matrix(.66847283 0 0 .66847283 -26.031719 2.090803)"><path d="m57.661017 18.305085 12.20339-12.0000003 1.118644-1.0169491c.535947-.4093238 1.138074-.6755092 2.338983-.6101695l.813559.6101695c.306849.6596707.152068 1.3286734.101695 2.0338983l-11.694915 16.7796611z" fill="#d6d6d6" stroke="#98989d" stroke-width="1.495947"/><path d="m59.389831 19.322034 12.813559-13.1186442.686441-.5338983.355932.3305085-12.122973 15.267452z" fill="#f9f9f9" filter="url(#d)"/><path d="m54.915254 19.525424c-2.355192 1.12312-2.986044 2.645733-4.067796 4.881356-1.280902 3.099136-3.365034 4.179849-6 5.898305 4.002224 2.208107 12.344829 3.382311 15.355932-1.016949 1.803572-2.317145 5.097789-5.637418 1.932203-8.237289-2.997587-2.267403-4.004437-2.954713-7.220339-1.525423z" fill="url(#e)" stroke="#f58b00" stroke-width="1.495947"/><path d="m49.395592 26.820763c-1.20494 1.428749-2.746668 2.309185-4.547936 3.483925 4.002224 2.208106 12.344366 3.383635 15.355469-1.015626-2.950168-3.198325-8.750083-1.802762-10.807533-2.468299z" fill="#0a84ff" stroke="#0040dd" stroke-width="1.495947"/><ellipse cx="55.441967" cy="22.525862" fill="url(#f)" rx="2.732548" ry="2.335888"/></g><path d="m17.199219 9.0097656-.064453.0917969-3.314454 2.9707035-.697265-1.892578c-.007973.005316-.017456.010299-.025391.015624-.325061.217649-.631831.46163-.916015.730469a1.0001 1.0001 0 0 0 -.3125.726563v.046875a1.0001 1.0001 0 0 0 -.275391.078125l.097656.28125h-.464844a1.0001 1.0001 0 0 0 -.058593.078125c-.175075.263285-.320033.530123-.447266.787109a1.0001 1.0001 0 0 0 -.001953.003906c-.027332.055849-.054244.111412-.080078.167969-.078283.169463-.144194.359394-.212891.544922h1.644531l-.78125.699219-1.185546.492187c-.01843.109686-.035388.21979-.048828.330078-.023831.193965-.031833.368103-.039063.523438v-.027344c-.0076.103922-.012625.208341-.015625.3125a1.0001 1.0001 0 0 0 0 .029297c0 1.832596.75494 3.653379 2.050781 4.949219.633699.633699 1.393986 1.13637 2.21875 1.486328l1.345703-1.638672c-.0077-.000378-.111847-.030178-.070312-.017578.281498.08545-.732704-.278645-.460938-.166016.271766.112631-.702775-.347714-.443359-.208984.259416.138728-.664488-.415444-.419922-.251953.244567.163492-.621893-.479649-.394531-.292969.227361.186679-.571248-.538147-.363281-.330078.207966.208068-.516645-.590733-.330079-.363281.18657.227452-.454387-.639178-.291015-.394532.163371.244646-.390555-.679404-.251953-.419922.138601.259486-.323435-.71518-.210938-.443359s-.24937-.742477-.164062-.460937c.08531.281539-.176439-.765109-.119141-.476563.0573.288547-.101007-.777149-.072265-.484375.009399.09565-.004613-.05895-.007813-.160156.01101-.119732.021917-.384058.029297-.644531.01355-.125731.01972-.18619.03125-.3125.02069-.120234.029828-.176991.048828-.298829.03376-.141669.049928-.217109.080078-.355468l.140625-.109375a1.0001 1.0001 0 0 0 .271485.115234v.001953a1.0001 1.0001 0 0 0 .003906 0 1.0001 1.0001 0 0 0 .09375.019532 1.0001 1.0001 0 0 0 .03125.003906l.253906.253906v-.246094h.689453l-.689453-1.298828v-.441406c.134934-.168475.107187-.140546.144531-.189453 0 0 .001953-.001953.001953-.001953.036656-.01837.373312-.355983.529297-.525391.050378-.037088.108567-.08073.177735-.134766l-.001954-.003906c.108148-.084333.220756-.170441.302735-.240234.150408-.08523.377238-.223444.517578-.316407.157911-.065459.393073-.172675.544922-.248046.163174-.04494.416303-.124689.578125-.181641.170047-.02547.438189-.07437.603516-.111328.233885-.006525.709256-.037766.740234-.052735.192683.013545.555252.035997.347656.015626-.292774-.028741.772922.129568.484375.072265-.288546-.0573.758102.204449.476563.119141-.28154-.08531.732758.276559.460937.164062s.702844.349539.443359.210938c-.259482-.138602.664569.415324.419922.251953-.244646-.163372.621984.477584.394532.291015-.12432-.101971.04234.0383.199218.179688l1.16211-1.648438c-.02004-.017789-.021825-.022108-.046875-.042968a1.0001 1.0001 0 0 0 -.011719-.007813c-.105407-.08544-.212071-.166925-.322266-.246093l-.011718-.007813c-.04012-.02998-.101397-.07924-.197266-.144531a1.0001 1.0001 0 0 0 -.005859-.003906c-.153542-.103025-.311442-.20047-.472657-.2910161l-.005859-.0039063c.02913.015987-.009195-.0094601-.078125-.0488281l-.017578-.0097656a1.0001 1.0001 0 0 0 -.017578-.0097657c-.404743-.2197597-.831416-.3990768-1.271485-.5351562-.216607-.0668249-.436135-.1244222-.658203-.1699219a1.0001 1.0001 0 0 0 -.001953 0c-.000012-.0000025-.005559.0000296-.005859 0h-.001953c-.002-.0004053-.00386-.0015531-.00586-.0019531-.191158-.038765-.384297-.0672307-.578125-.0898438l-.041015-.0058593c-.0067-.0009756-.012872-.0029463-.019532-.0039063a1.0001 1.0001 0 0 0 -.042968-.0039062c-.03261-.00331-.06872-.0031094-.101563-.0058594-.135596-.011868-.274106-.0161834-.412109-.0214844z" fill="#fff" fill-opacity=".784314"/><g transform="translate(0 9)"><path d="m17 1c-.278017 0-.550248.025655-.818359.0625a6 6 0 0 0 -.15625.019531c-.260623.042815-.513416.1044141-.761719.1796876a6 6 0 0 0 -.195313.066406c-.208064.071031-.412224.1517256-.609375.2441406a6 6 0 0 0 -.142578.0625c-.230295.1152879-.44981.2481044-.662109.390625a6 6 0 0 0 -.785156.6269532v2.1015624h.820312a3.9966359 3.9966359 0 0 1 3.306641-1.7539058 3.9966359 3.9966359 0 0 1 3.998047 3.9960938 3.9966359 3.9966359 0 0 1 -.134766 1.0039062h1.140625v2.308594a6 6 0 0 0 .109375-.177735c.07907-.128745.155055-.2597304.224609-.3945309a6 6 0 0 0 .150391-.3164062c.05619-.1264208.104777-.2559424.152344-.3867188a6 6 0 0 0 .171875-.5566406c.03105-.121303.06051-.2430596.08398-.3671875a6 6 0 0 0 .0625-.4082031c.01505-.1280373.02257-.258267.0293-.3886719a6 6 0 0 0 .015626-.3125 6 6 0 0 0 -.648438-2.7128906c-.0013-.00259-.0026-.00523-.0039-.00781a6 6 0 0 0 -.002-.00391 6 6 0 0 0 -.275391-.4785156c-.008-.012514-.01344-.026611-.02148-.039063a6 6 0 0 0 -.0078-.011719 6 6 0 0 0 -.3125-.4355469c-.01036-.013218-.01882-.027886-.0293-.041016a6 6 0 0 0 -.0078-.00977 6 6 0 0 0 -.30664-.3476562c-.03435-.036718-.06631-.075479-.101563-.1113282a6 6 0 0 0 -.267578-.25c-.058794-.0529857-.114892-.1094766-.175766-.1601495a6 6 0 0 0 -.28711-.21875c-.059304-.0436512-.116801-.0893589-.177734-.1308594a6 6 0 0 0 -.410156-.2519531c-.03011-.017152-.05746-.038044-.08789-.054687a6 6 0 0 0 -.01367-.00781 6 6 0 0 0 -1.089843-.4589844 6 6 0 0 0 -.564454-.1445312c-.0019-.000385-.004.0003832-.0059 0-.176343-.035978-.355582-.063861-.537109-.083984a6 6 0 0 0 -.05273-.00781h-.002c-.201077-.0204201-.404814-.0312559-.611248-.0312559z" fill="url(#b)"/><path d="m12 3.6914062c-.142904.214906-.26755.4429757-.382812.6757813a6 6 0 0 0 -.06836.1445313c-.10635.2299543-.202198.4646168-.279297.7089843a6 6 0 0 0 -.002.00586 6 6 0 0 0 -.03516.140625c-.05348.1857855-.0974.3756796-.132813.5683594a6 6 0 0 0 -.05273.3476562c-.01815.1477345-.02617.2983215-.0332.4492188a6 6 0 0 0 -.013628.2675775 6 6 0 0 0 6 6 6 6 0 0 0 4.134766-1.65625v-2.078125h-.84961a3.9966359 3.9966359 0 0 1 -3.289062 1.728516 3.9966359 3.9966359 0 0 1 -3.996094-3.9980472 3.9966359 3.9966359 0 0 1 .130859-.9960938h-1.130859z" fill="url(#c)"/></g></svg>

<?xml version="1.0" encoding="UTF-8" standalone="no"?>
<svg
   xmlns:dc="http://purl.org/dc/elements/1.1/"
   xmlns:cc="http://creativecommons.org/ns#"
   xmlns:rdf="http://www.w3.org/1999/02/22-rdf-syntax-ns#"
   xmlns:svg="http://www.w3.org/2000/svg"
   xmlns="http://www.w3.org/2000/svg"
   xmlns:xlink="http://www.w3.org/1999/xlink"
   xmlns:sodipodi="http://sodipodi.sourceforge.net/DTD/sodipodi-0.dtd"
   xmlns:inkscape="http://www.inkscape.org/namespaces/inkscape"
   viewBox="0 0 24 24"
   version="1.1"
   id="svg1021"
   sodipodi:docname="lc_styleupdatebyexample.svg"
   inkscape:version="0.92.3 (2405546, 2018-03-11)">
  <metadata
     id="metadata1027">
    <rdf:RDF>
      <cc:Work
         rdf:about="">
        <dc:format>image/svg+xml</dc:format>
        <dc:type
           rdf:resource="http://purl.org/dc/dcmitype/StillImage" />
        <dc:title />
      </cc:Work>
    </rdf:RDF>
  </metadata>
  <defs
     id="defs1025">
    <linearGradient
       id="XMLID_68_"
       gradientUnits="userSpaceOnUse"
       x1="1029.9325"
       y1="304.34689"
       x2="1246.3793"
       y2="304.34689"
       gradientTransform="matrix(0.04489798,0,0,0.04489798,-33.025329,-7.4812284)">
      <stop
         offset="0"
         style="stop-color:#32C3F6"
         id="stop60" />
      <stop
         offset="1"
         style="stop-color:#2954B3"
         id="stop62" />
    </linearGradient>
    <linearGradient
       id="XMLID_69_"
       gradientUnits="userSpaceOnUse"
       x1="1204.6859"
       y1="341.08221"
       x2="980.39728"
       y2="341.08221"
       gradientTransform="matrix(0.04489798,0,0,0.04489798,-33.025329,-7.4812284)">
      <stop
         offset="0"
         style="stop-color:#32C3F6"
         id="stop66" />
      <stop
         offset="1"
         style="stop-color:#2954B3"
         id="stop68" />
    </linearGradient>
    <linearGradient
       gradientTransform="translate(27,-7)"
       id="a-7"
       gradientUnits="userSpaceOnUse"
       x1="14"
       x2="13.79661"
       y1="22"
       y2="2.1355929">
      <stop
         offset="0"
         stop-color="#0040dd"
         id="stop1784" />
      <stop
         offset="1"
         stop-color="#0a84ff"
         id="stop1786" />
    </linearGradient>
    <linearGradient
       inkscape:collect="always"
       xlink:href="#a-7"
       id="linearGradient2372"
       x1="22"
       y1="9"
       x2="14"
       y2="-1"
       gradientUnits="userSpaceOnUse" />
    <linearGradient
       inkscape:collect="always"
       xlink:href="#a-7"
       id="linearGradient2380"
       x1="12.582002"
       y1="5.3614731"
       x2="19"
       y2="12"
       gradientUnits="userSpaceOnUse" />
  </defs>
  <sodipodi:namedview
     pagecolor="#ffffff"
     bordercolor="#666666"
     borderopacity="1"
     objecttolerance="10"
     gridtolerance="10"
     guidetolerance="10"
     inkscape:pageopacity="0"
     inkscape:pageshadow="2"
     inkscape:window-width="1366"
     inkscape:window-height="685"
     id="namedview1023"
     showgrid="true"
     inkscape:zoom="4.9166669"
     inkscape:cx="-0.10198174"
     inkscape:cy="-15.684011"
     inkscape:window-x="0"
     inkscape:window-y="0"
     inkscape:window-maximized="1"
     inkscape:current-layer="svg1021"
     inkscape:snap-global="false">
    <inkscape:grid
       type="xygrid"
       id="grid1599" />
  </sodipodi:namedview>
  <filter
     id="a"
     color-interpolation-filters="sRGB"
     height="1.135959"
     width="1.153052"
     x="-.076526"
     y="-.067979">
    <feGaussianBlur
       stdDeviation=".44180839"
       id="feGaussianBlur994" />
  </filter>
  <radialGradient
     id="b"
     cx="55.498295"
     cy="20.746534"
     gradientTransform="matrix(1 0 0 .72181261 0 7.10169)"
     gradientUnits="userSpaceOnUse"
     r="10.03901">
    <stop
       offset="0"
       stop-color="#ffc765"
       id="stop997" />
    <stop
       offset="1"
       stop-color="#ffa914"
       id="stop999" />
  </radialGradient>
  <radialGradient
     id="c"
     cx="55.441967"
     cy="22.525862"
     gradientTransform="matrix(1.2258064 0 0 1.0478667 -12.519154 -1.07824)"
     gradientUnits="userSpaceOnUse"
     r="2.229184">
    <stop
       offset="0"
       stop-color="#ffe9c3"
       id="stop1002" />
    <stop
       offset="1"
       stop-color="#ffe9c3"
       stop-opacity="0"
       id="stop1004" />
  </radialGradient>
  <g
     id="g1582">
    <path
       id="path1007"
       fill="#69696e"
       d="m7.8984375 2-5.8984375 16h1.6875c.1834758 0 .3391616-.05267.4667969-.158203.1356125-.10553.2275274-.227232.2753906-.365235l1.328125-3.835937h6.4843755l.472656 1.359375h1.960937l.16211-.162109-4.72461-12.837891zm1.1015625 2.09375c.071795.3003551.1467904.5800771.2265625.8398438.079772.2597666.1604623.4887687.2402344.6835937l2.2246091 6.4414065h-5.3828122l2.2246093-6.4296878c.0717949-.1948249.1467904-.421874.2265625-.6816406s.1604623-.5450428.2402344-.8535156z" />
    <g
       id="g1019"
       transform="matrix(.66847283 0 0 .66847283 -26.031719 2.090803)">
      <path
         id="path1009"
         stroke-width="1.495947"
         stroke="#98989d"
         fill="#d6d6d6"
         d="m57.661017 18.305085 12.20339-12.0000003 1.118644-1.0169491c.535947-.4093238 1.138074-.6755092 2.338983-.6101695l.813559.6101695c.306849.6596707.152068 1.3286734.101695 2.0338983l-11.694915 16.7796611z" />
      <path
         id="path1011"
         filter="url(#a)"
         fill="#f9f9f9"
         d="m59.389831 19.322034 12.813559-13.1186442.686441-.5338983.355932.3305085-12.122973 15.267452z" />
      <path
         id="path1013"
         stroke-width="1.495947"
         stroke="#f58b00"
         fill="url(#b)"
         d="m54.915254 19.525424c-2.355192 1.12312-2.986044 2.645733-4.067796 4.881356-1.280902 3.099136-3.365034 4.179849-6 5.898305 4.002224 2.208107 12.344829 3.382311 15.355932-1.016949 1.803572-2.317145 5.097789-5.637418 1.932203-8.237289-2.997587-2.267403-4.004437-2.954713-7.220339-1.525423z" />
      <path
         id="path1015"
         stroke-width="1.495947"
         stroke="#0040dd"
         fill="#0a84ff"
         d="m49.395592 26.820763c-1.20494 1.428749-2.746668 2.309185-4.547936 3.483925 4.002224 2.208106 12.344366 3.383635 15.355469-1.015626-2.950168-3.198325-8.750083-1.802762-10.807533-2.468299z" />
      <ellipse
         id="ellipse1017"
         ry="2.335888"
         rx="2.732548"
         fill="url(#c)"
         cy="22.525862"
         cx="55.441967" />
    </g>
    <path
       style="fill:#ffffff;fill-opacity:0.78431374"
       d="M 17.199219 9.0097656 L 17.134766 9.1015625 L 13.820312 12.072266 L 13.123047 10.179688 C 13.115074 10.185004 13.105591 10.189987 13.097656 10.195312 C 12.772595 10.412961 12.465825 10.656942 12.181641 10.925781 A 1.0001 1.0001 0 0 0 11.869141 11.652344 L 11.869141 11.699219 A 1.0001 1.0001 0 0 0 11.59375 11.777344 L 11.691406 12.058594 L 11.226562 12.058594 A 1.0001 1.0001 0 0 0 11.167969 12.136719 C 10.992894 12.400004 10.847936 12.666842 10.720703 12.923828 A 1.0001 1.0001 0 0 0 10.71875 12.927734 C 10.691418 12.983583 10.664506 13.039146 10.638672 13.095703 C 10.560389 13.265166 10.494478 13.455097 10.425781 13.640625 L 12.070312 13.640625 L 11.289062 14.339844 L 10.103516 14.832031 C 10.085086 14.941717 10.068128 15.051821 10.054688 15.162109 C 10.030857 15.356074 10.022855 15.530212 10.015625 15.685547 L 10.015625 15.658203 C 10.008025 15.762125 10.003 15.866544 10 15.970703 A 1.0001 1.0001 0 0 0 10 16 C 10 17.832596 10.75494 19.653379 12.050781 20.949219 C 12.68448 21.582918 13.444767 22.085589 14.269531 22.435547 L 15.615234 20.796875 C 15.607534 20.796497 15.503387 20.766697 15.544922 20.779297 C 15.82642 20.864747 14.812218 20.500652 15.083984 20.613281 C 15.35575 20.725912 14.381209 20.265567 14.640625 20.404297 C 14.900041 20.543025 13.976137 19.988853 14.220703 20.152344 C 14.46527 20.315836 13.59881 19.672695 13.826172 19.859375 C 14.053533 20.046054 13.254924 19.321228 13.462891 19.529297 C 13.670857 19.737365 12.946246 18.938564 13.132812 19.166016 C 13.319382 19.393468 12.678425 18.526838 12.841797 18.771484 C 13.005168 19.01613 12.451242 18.09208 12.589844 18.351562 C 12.728445 18.611048 12.266409 17.636382 12.378906 17.908203 C 12.491403 18.180024 12.129536 17.165726 12.214844 17.447266 C 12.300154 17.728805 12.038405 16.682157 12.095703 16.970703 C 12.153003 17.25925 11.994696 16.193554 12.023438 16.486328 C 12.032837 16.581978 12.018825 16.427378 12.015625 16.326172 C 12.026635 16.20644 12.037542 15.942114 12.044922 15.681641 C 12.058472 15.55591 12.064642 15.495451 12.076172 15.369141 C 12.096862 15.248907 12.106 15.19215 12.125 15.070312 C 12.15876 14.928643 12.174928 14.853203 12.205078 14.714844 L 12.345703 14.605469 A 1.0001 1.0001 0 0 0 12.617188 14.720703 L 12.617188 14.722656 A 1.0001 1.0001 0 0 0 12.621094 14.722656 A 1.0001 1.0001 0 0 0 12.714844 14.742188 A 1.0001 1.0001 0 0 0 12.746094 14.746094 L 13 15 L 13 14.753906 L 13.689453 14.753906 L 13 13.455078 L 13 13.013672 C 13.134934 12.845197 13.107187 12.873126 13.144531 12.824219 C 13.144531 12.824219 13.146484 12.822266 13.146484 12.822266 C 13.18314 12.803896 13.519796 12.466283 13.675781 12.296875 C 13.726159 12.259787 13.784348 12.216145 13.853516 12.162109 L 13.851562 12.158203 C 13.95971 12.07387 14.072318 11.987762 14.154297 11.917969 C 14.304705 11.832739 14.531535 11.694525 14.671875 11.601562 C 14.829786 11.536103 15.064948 11.428887 15.216797 11.353516 C 15.379971 11.308576 15.6331 11.228827 15.794922 11.171875 C 15.964969 11.146405 16.233111 11.097505 16.398438 11.060547 C 16.632323 11.054022 17.107694 11.022781 17.138672 11.007812 C 17.331355 11.021357 17.693924 11.043809 17.486328 11.023438 C 17.193554 10.994697 18.25925 11.153006 17.970703 11.095703 C 17.682157 11.038403 18.728805 11.300152 18.447266 11.214844 C 18.165726 11.129534 19.180024 11.491403 18.908203 11.378906 C 18.636382 11.266409 19.611047 11.728445 19.351562 11.589844 C 19.09208 11.451242 20.016131 12.005168 19.771484 11.841797 C 19.526838 11.678425 20.393468 12.319381 20.166016 12.132812 C 20.041696 12.030841 20.208356 12.171112 20.365234 12.3125 L 21.527344 10.664062 C 21.507304 10.646273 21.505519 10.641954 21.480469 10.621094 A 1.0001 1.0001 0 0 0 21.46875 10.613281 C 21.363343 10.527841 21.256679 10.446356 21.146484 10.367188 L 21.134766 10.359375 C 21.094646 10.329395 21.033369 10.280135 20.9375 10.214844 A 1.0001 1.0001 0 0 0 20.931641 10.210938 C 20.778099 10.107913 20.620199 10.010468 20.458984 9.9199219 L 20.453125 9.9160156 C 20.482255 9.9320026 20.44393 9.9065555 20.375 9.8671875 L 20.357422 9.8574219 A 1.0001 1.0001 0 0 0 20.339844 9.8476562 C 19.935101 9.6278965 19.508428 9.4485794 19.068359 9.3125 C 18.851752 9.2456751 18.632224 9.1880778 18.410156 9.1425781 A 1.0001 1.0001 0 0 0 18.408203 9.1425781 C 18.408191 9.1425756 18.402644 9.1426077 18.402344 9.1425781 L 18.400391 9.1425781 C 18.398391 9.1421728 18.396531 9.141025 18.394531 9.140625 C 18.203373 9.10186 18.010234 9.0733943 17.816406 9.0507812 L 17.775391 9.0449219 C 17.768691 9.0439463 17.762519 9.0419756 17.755859 9.0410156 A 1.0001 1.0001 0 0 0 17.712891 9.0371094 C 17.680281 9.0337994 17.644171 9.034 17.611328 9.03125 C 17.475732 9.019382 17.337222 9.0150666 17.199219 9.0097656 z "
       id="path2417" />
  </g>
  <g
     transform="matrix(0.04489798,0,0,0.04489798,-33.025329,-7.4812284)"
     id="XMLID_3_">
    <linearGradient
       id="linearGradient946"
       gradientUnits="userSpaceOnUse"
       x1="1029.9325"
       y1="304.34689"
       x2="1246.3793"
       y2="304.34689">
      <stop
         offset="0"
         style="stop-color:#32C3F6"
         id="stop942" />
      <stop
         offset="1"
         style="stop-color:#2954B3"
         id="stop944" />
    </linearGradient>
    <linearGradient
       id="linearGradient953"
       gradientUnits="userSpaceOnUse"
       x1="1204.6859"
       y1="341.08221"
       x2="980.39728"
       y2="341.08221">
      <stop
         offset="0"
         style="stop-color:#32C3F6"
         id="stop949" />
      <stop
         offset="1"
         style="stop-color:#2954B3"
         id="stop951" />
    </linearGradient>
  </g>
  <g
     id="g2384"
     transform="translate(0,9)">
    <path
       id="circle1599"
       d="m 17,1 c -0.278017,0 -0.550248,0.025655 -0.818359,0.0625 a 6,6 0 0 0 -0.15625,0.019531 c -0.260623,0.042815 -0.513416,0.1044141 -0.761719,0.1796876 a 6,6 0 0 0 -0.195313,0.066406 c -0.208064,0.071031 -0.412224,0.1517256 -0.609375,0.2441406 a 6,6 0 0 0 -0.142578,0.0625 c -0.230295,0.1152879 -0.44981,0.2481044 -0.662109,0.390625 a 6,6 0 0 0 -0.785156,0.6269532 v 2.1015624 h 0.820312 A 3.9966359,3.9966359 0 0 1 16.996094,3 3.9966359,3.9966359 0 0 1 20.994141,6.9960938 3.9966359,3.9966359 0 0 1 20.859375,8 H 22 v 2.308594 a 6,6 0 0 0 0.109375,-0.177735 c 0.07907,-0.128745 0.155055,-0.2597304 0.224609,-0.3945309 a 6,6 0 0 0 0.150391,-0.3164062 c 0.05619,-0.1264208 0.104777,-0.2559424 0.152344,-0.3867188 a 6,6 0 0 0 0.171875,-0.5566406 c 0.03105,-0.121303 0.06051,-0.2430596 0.08398,-0.3671875 a 6,6 0 0 0 0.0625,-0.4082031 c 0.01505,-0.1280373 0.02257,-0.258267 0.0293,-0.3886719 A 6,6 0 0 0 23,7 6,6 0 0 0 22.351562,4.2871094 c -0.0013,-0.00259 -0.0026,-0.00523 -0.0039,-0.00781 a 6,6 0 0 0 -0.002,-0.00391 6,6 0 0 0 -0.275391,-0.4785156 c -0.008,-0.012514 -0.01344,-0.026611 -0.02148,-0.039063 a 6,6 0 0 0 -0.0078,-0.011719 6,6 0 0 0 -0.3125,-0.4355469 c -0.01036,-0.013218 -0.01882,-0.027886 -0.0293,-0.041016 a 6,6 0 0 0 -0.0078,-0.00977 6,6 0 0 0 -0.30664,-0.3476562 c -0.03435,-0.036718 -0.06631,-0.075479 -0.101563,-0.1113282 a 6,6 0 0 0 -0.267578,-0.25 C 20.956816,2.4977888 20.900718,2.4412979 20.839844,2.390625 a 6,6 0 0 0 -0.28711,-0.21875 C 20.49343,2.1282238 20.435933,2.0825161 20.375,2.0410156 A 6,6 0 0 0 19.964844,1.7890625 c -0.03011,-0.017152 -0.05746,-0.038044 -0.08789,-0.054687 a 6,6 0 0 0 -0.01367,-0.00781 6,6 0 0 0 -1.089843,-0.4589844 6,6 0 0 0 -0.564454,-0.1445312 c -0.0019,-3.85e-4 -0.004,3.832e-4 -0.0059,0 -0.176343,-0.035978 -0.355582,-0.063861 -0.537109,-0.083984 a 6,6 0 0 0 -0.05273,-0.00781 c 0,0 -0.002,0 -0.002,0 C 17.410171,1.0108358 17.206434,1 17,1 Z"
       style="opacity:1;fill:url(#linearGradient2372);fill-opacity:1;stroke:none;stroke-width:2;stroke-linecap:round;stroke-linejoin:round;stroke-miterlimit:4;stroke-dasharray:none;stroke-opacity:1"
       inkscape:connector-curvature="0" />
    <path
       id="path1597"
       d="m 12,3.6914062 c -0.142904,0.214906 -0.26755,0.4429757 -0.382812,0.6757813 a 6,6 0 0 0 -0.06836,0.1445313 c -0.10635,0.2299543 -0.202198,0.4646168 -0.279297,0.7089843 a 6,6 0 0 0 -0.002,0.00586 6,6 0 0 0 -0.03516,0.140625 c -0.05348,0.1857855 -0.0974,0.3756796 -0.132813,0.5683594 a 6,6 0 0 0 -0.05273,0.3476562 c -0.01815,0.1477345 -0.02617,0.2983215 -0.0332,0.4492188 A 6,6 0 0 0 11,7 a 6,6 0 0 0 6,6 6,6 0 0 0 4.134766,-1.65625 V 9.265625 h -0.84961 A 3.9966359,3.9966359 0 0 1 16.996094,10.994141 3.9966359,3.9966359 0 0 1 13,6.9960938 3.9966359,3.9966359 0 0 1 13.130859,6 H 12 Z"
       style="opacity:1;fill:url(#linearGradient2380);fill-opacity:1;stroke:none;stroke-width:2;stroke-linecap:round;stroke-linejoin:round;stroke-miterlimit:4;stroke-dasharray:none;stroke-opacity:1"
       inkscape:connector-curvature="0" />
  </g>
</svg>
